X:39
T:Walsh's Hornpipe
R:hornpipe
H:Also played in A, see #42
Z:id:hn-hornpipe-39
M:C|
K:G
GD|(3GAB DE GBdB|(3cde AB cde2|edBd gdBG|(3ABc BG AGEF|
(3GAB DE GBdB|(3cde AB cde2|edBd gdBG|(3ABc BA G2:|
|:(3Bcd|gd (3Bcd ed (3Bcd|gd (3Bcd edBA|GA (3Bcd gdBG|(3ABc BG AGEF|
(3GAB DE GBdB|(3cde AB cde2|edBd gdBG|(3ABc BA G2:|
<end>
<start>
